assets/svg/migaku-logo-mono.svg

<svg fill="none" height="28" viewBox="0 0 132 28" width="120" xmlns="http://www.w3.org/2000/svg"><path clip-rule="evenodd" d="m11.5706 3.11972c-.4768-1.23009-1.69463-2.01036-3.01139-1.9294s-2.42983 1.00454-2.75231 2.28376l-4.74843 18.83582c-.409091 1.6227.57478 3.2699 2.19754 3.679s3.2699-.5748 3.679-2.1976l1.52803-6.0613c1.15465 2.8398 3.94146 4.842 7.19596 4.842 3.2553 0 6.0428-2.0033 7.1969-4.8443l1.5286 6.0636c.4091 1.6228 2.0562 2.6067 3.679 2.1976 1.6227-.4091 2.6066-2.0563 2.1975-3.679l-4.7484-18.83582c-.3225-1.27922-1.4356-2.2028-2.7523-2.28376-1.3168-.08096-2.5346.69931-3.0114 1.9294l-1.4992 3.86812c-.059.15228-.1281.29476-.206.42743-.7514-.24221-1.5528-.37305-2.3847-.37305-.8315 0-1.6324.13069-2.3834.37265-.0778-.13256-.1468-.2749-.2058-.42703zm9.0531 13.04708c.163-.6133.1497-1.6058.0309-2.1166-.5079-2.1839-2.5167-3.8771-4.7726-3.8819-2.931-.0063-5.26 2.2362-5.291 5.1773-.0213 2.0198 1.4997 4.1066 3.646 4.1005 1.6315-.0047 3.1427-1.2341 3.1519-3.0669.0042-.8193-.301-2.2645-1.3379-2.2949-.467-.0137-.9879.4413-.9964.9244-.0041.229.0695.4441.1433.6603.0729.2131.146.4272.1455.6565-.0016.6453-.4206 1.0894-1.0224 1.1068-1.252.0362-1.756-1.3063-1.7442-2.3713.0119-1.0727.4305-2.2412 1.2263-2.8518 2.3023-1.7666 5.4663-.7162 6.4144 2.1295.0949.2847.2012 1.1048.1702 1.7909 0 .2496.1796.2496.236.0372zm15.7857-11.91349c1.6735-.00006 3.0302 1.35656 3.0303 3.03009l.0006 16.0192c0 1.6736-1.3566 3.0303-3.0301 3.0304-1.6736 0-3.0303-1.3566-3.0303-3.0301l-.0006-16.01928c-.0001-1.67354 1.3565-3.03025 3.0301-3.03031zm77.1526 0c1.674-.00006 3.031 1.35655 3.031 3.03008v8.00491c0 2.6558 2.153 4.8087 4.809 4.8087s4.809-2.1531 4.809-4.8091v-8.00428c-.001-1.67353 1.356-3.03025 3.03-3.03031 1.673-.00006 3.03 1.35655 3.03 3.03008v8.00431c0 6.0031-4.866 10.8697-10.869 10.8697s-10.869-4.8661-10.869-10.8689l-.001-8.00488c0-1.67353 1.357-3.03025 3.03-3.03031zm-18.0968 3.03009c-.0001-1.67353-1.3568-3.03015-3.0303-3.03009-1.6736.00006-3.0302 1.35677-3.0301 3.03031l.0006 15.99888c-.0002.0261 0 .0522.0005.0782.0091.4867.133.9453.3456 1.3499.179.3417.4259.6538.7376.9146.2628.2205.5635.3972.891.5189.4173.1552.8579.2136 1.2902.1799.3718-.0285.7248-.1241 1.0469-.2747.4625-.2161.8613-.5456 1.1608-.9528l3.7693-5.0793 5.0827 5.2232c1.167 1.1995 3.085 1.2257 4.285.0586 1.199-1.1671 1.225-3.0856.058-4.285l-5.767-5.927 4.311-5.80995c.998-1.34391.717-3.24184-.627-4.23913-1.344-.9973-3.242-.71631-4.239.6276l-6.2856 8.46968zm-19.5903-3.03009c1.1371 0 2.1785.63661 2.6969 1.64864l8.2062 16.01925c.763 1.4895.1741 3.3155-1.3154 4.0785-1.4894.763-3.3154.1741-4.0784-1.3154l-5.5093-10.7546-5.5093 10.7546c-.763 1.4895-2.589 2.0784-4.0785 1.3154-1.4894-.763-2.0783-2.589-1.3153-4.0785l8.2062-16.01925c.5184-1.01203 1.5598-1.64864 2.6969-1.64864zm-33.4762 11.13949c0-5.99397 4.9342-10.86375 10.9339-10.86375h5.3314c1.6735 0 3.0302 1.35667 3.0302 3.0302s-1.3567 3.03015-3.0302 3.03015h-5.3314c-2.647 0-4.8735 2.1509-4.8735 4.8034 0 2.6526 2.2265 4.8034 4.8735 4.8034 1.6432 0 3.6313-.9512 4.3095-2.3331h-4.3095c-1.3947 0-2.5252-1.1306-2.5252-2.5252s1.1305-2.5252 2.5252-2.5252h7.7062c1.7715 0 3.0877 1.4759 3.0877 3.217 0 5.6482-5.1458 10.2269-10.7939 10.2269-5.9997 0-10.9339-4.8698-10.9339-10.8638zm36.5111 7.8337c0 1.6766-1.3592 3.0358-3.0357 3.0358-1.6766 0-3.0358-1.3592-3.0358-3.0358s1.3592-3.0357 3.0358-3.0357c1.6765 0 3.0357 1.3591 3.0357 3.0357z" fill="#00005a" fill-rule="evenodd"/></svg>

<svg width="120" height="28" viewBox="0 0 132 28" fill="none" xmlns="http://www.w3.org/2000/svg">
  <path fill-rule="evenodd" clip-rule="evenodd" d="M11.5706 3.11972C11.0938 1.88963 9.87597 1.10936 8.55921 1.19032C7.24245 1.27128 6.12938 2.19486 5.8069 3.47408L1.05847 22.3099C0.649379 23.9326 1.63325 25.5798 3.25601 25.9889C4.87877 26.398 6.52591 25.4141 6.93501 23.7913L8.46304 17.73C9.61769 20.5698 12.4045 22.572 15.659 22.572C18.9143 22.572 21.7018 20.5687 22.8559 17.7277L24.3845 23.7913C24.7936 25.4141 26.4407 26.398 28.0635 25.9889C29.6862 25.5798 30.6701 23.9326 30.261 22.3099L25.5126 3.47408C25.1901 2.19486 24.077 1.27128 22.7603 1.19032C21.4435 1.10936 20.2257 1.88963 19.7489 3.11972L18.2497 6.98784C18.1907 7.14012 18.1216 7.2826 18.0437 7.41527C17.2923 7.17306 16.4909 7.04222 15.659 7.04222C14.8275 7.04222 14.0266 7.17291 13.2756 7.41487C13.1978 7.28231 13.1288 7.13997 13.0698 6.98784L11.5706 3.11972ZM20.6237 16.1668C20.7867 15.5535 20.7734 14.561 20.6546 14.0502C20.1467 11.8663 18.1379 10.1731 15.882 10.1683C12.951 10.162 10.622 12.4045 10.591 15.3456C10.5697 17.3654 12.0907 19.4522 14.237 19.4461C15.8685 19.4414 17.3797 18.212 17.3889 16.3792C17.3931 15.5599 17.0879 14.1147 16.051 14.0843C15.584 14.0706 15.0631 14.5256 15.0546 15.0087C15.0505 15.2377 15.1241 15.4528 15.1979 15.669C15.2708 15.8821 15.3439 16.0962 15.3434 16.3255C15.3418 16.9708 14.9228 17.4149 14.321 17.4323C13.069 17.4685 12.565 16.126 12.5768 15.061C12.5887 13.9883 13.0073 12.8198 13.8031 12.2092C16.1054 10.4426 19.2694 11.493 20.2175 14.3387C20.3124 14.6234 20.4187 15.4435 20.3877 16.1296C20.3877 16.3792 20.5673 16.3792 20.6237 16.1668ZM36.4094 4.25331C38.0829 4.25325 39.4396 5.60987 39.4397 7.2834L39.4403 23.3026C39.4403 24.9762 38.0837 26.3329 36.4102 26.333C34.7366 26.333 33.3799 24.9764 33.3799 23.3029L33.3793 7.28362C33.3792 5.61008 34.7358 4.25337 36.4094 4.25331ZM113.562 4.25331C115.236 4.25325 116.593 5.60986 116.593 7.28339L116.593 15.2883C116.593 17.9441 118.746 20.097 121.402 20.097C124.058 20.097 126.211 17.9439 126.211 15.2879L126.211 7.28362C126.21 5.61009 127.567 4.25337 129.241 4.25331C130.914 4.25325 132.271 5.60986 132.271 7.28339L132.271 15.2877C132.271 21.2908 127.405 26.1574 121.402 26.1574C115.399 26.1574 110.533 21.2913 110.533 15.2885L110.532 7.28362C110.532 5.61009 111.889 4.25337 113.562 4.25331ZM95.4652 7.2834C95.4651 5.60987 94.1084 4.25325 92.4349 4.25331C90.7613 4.25337 89.4047 5.61008 89.4048 7.28362L89.4054 23.2825C89.4052 23.3086 89.4054 23.3347 89.4059 23.3607C89.415 23.8474 89.5389 24.306 89.7515 24.7106C89.9305 25.0523 90.1774 25.3644 90.4891 25.6252C90.7519 25.8457 91.0526 26.0224 91.3801 26.1441C91.7974 26.2993 92.238 26.3577 92.6703 26.324C93.0421 26.2955 93.3951 26.1999 93.7172 26.0493C94.1797 25.8332 94.5785 25.5037 94.878 25.0965L98.6473 20.0172L103.73 25.2404C104.897 26.4399 106.815 26.4661 108.015 25.299C109.214 24.1319 109.24 22.2134 108.073 21.014L102.306 15.087L106.617 9.27705C107.615 7.93314 107.334 6.03521 105.99 5.03792C104.646 4.04062 102.748 4.32161 101.751 5.66552L95.4654 14.1352L95.4652 7.2834ZM75.8749 4.25331C77.012 4.25331 78.0534 4.88992 78.5718 5.90195L86.778 21.9212C87.541 23.4107 86.9521 25.2367 85.4626 25.9997C83.9732 26.7627 82.1472 26.1738 81.3842 24.6843L75.8749 13.9297L70.3656 24.6843C69.6026 26.1738 67.7766 26.7627 66.2871 25.9997C64.7977 25.2367 64.2088 23.4107 64.9718 21.9212L73.178 5.90195C73.6964 4.88992 74.7378 4.25331 75.8749 4.25331ZM42.3987 15.3928C42.3987 9.39883 47.3329 4.52905 53.3326 4.52905H58.664C60.3375 4.52905 61.6942 5.88572 61.6942 7.55925C61.6942 9.23278 60.3375 10.5894 58.664 10.5894H53.3326C50.6856 10.5894 48.4591 12.7403 48.4591 15.3928C48.4591 18.0454 50.6856 20.1962 53.3326 20.1962C54.9758 20.1962 56.9639 19.245 57.6421 17.8631H53.3326C51.9379 17.8631 50.8074 16.7325 50.8074 15.3379C50.8074 13.9433 51.9379 12.8127 53.3326 12.8127H61.0388C62.8103 12.8127 64.1265 14.2886 64.1265 16.0297C64.1265 21.6779 58.9807 26.2566 53.3326 26.2566C47.3329 26.2566 42.3987 21.3868 42.3987 15.3928ZM78.9098 23.2265C78.9098 24.9031 77.5506 26.2623 75.8741 26.2623C74.1975 26.2623 72.8383 24.9031 72.8383 23.2265C72.8383 21.5499 74.1975 20.1908 75.8741 20.1908C77.5506 20.1908 78.9098 21.5499 78.9098 23.2265Z" fill="#00005A"/>
</svg>
